build/documents/ScanSendOutline.svg

<svg xmlns="http://www.w3.org/2000/svg" fill="none" viewBox="0 0 24 24" focusable="false"><path d="M0 0H24V24H0z"/><path fill="#74767B" fill-rule="evenodd" d="M13.4949 4.3L6.99995 4.3C6.06107 4.3 5.29995 5.06112 5.29995 6L5.29995 11.35L18.7 11.35L18.7 9.29679C18.7 9.19632 18.6911 9.0968 18.6737 8.99928L15.9526 8.99929C14.8757 8.99929 14.0026 8.12625 14.0026 7.04929L14.0026 4.37761C13.8397 4.32659 13.6686 4.3 13.4949 4.3ZM3.99995 6L3.99995 11.35L2.99985 11.35C2.64087 11.35 2.34985 11.641 2.34985 12C2.34985 12.359 2.64087 12.65 2.99985 12.65L20.9999 12.65C21.3588 12.65 21.6499 12.359 21.6499 12C21.6499 11.641 21.3588 11.35 20.9999 11.35L20 11.35L20 9.29679C20 8.46926 19.6581 7.67849 19.0553 7.11153L15.5502 3.81474C14.9938 3.29139 14.2587 3 13.4949 3L6.99995 3C5.3431 3 3.99995 4.34315 3.99995 6ZM15.3026 5.36653L17.7828 7.69929L15.9526 7.69929C15.5937 7.69929 15.3026 7.40827 15.3026 7.04929L15.3026 5.36653ZM3.99995 14.5944C3.99995 14.2355 4.29097 13.9444 4.64995 13.9444C5.00894 13.9444 5.29995 14.2355 5.29995 14.5944L5.29995 18C5.29995 18.9389 6.06107 19.7 6.99995 19.7L12.1206 19.7C12.4796 19.7 12.7706 19.991 12.7706 20.35C12.7706 20.709 12.4796 21 12.1206 21L6.99995 21C5.3431 21 3.99995 19.6569 3.99995 18L3.99995 14.5944ZM15.2951 16.819C14.9571 16.8184 14.6793 17.0854 14.6664 17.4231C14.653 17.7765 14.9336 18.0713 15.2872 18.0736C16.9281 18.0844 18.7127 18.0751 18.7127 18.0751L17.1644 19.4803C16.9062 19.7022 16.873 20.0956 17.0944 20.3634C17.2146 20.5025 17.3757 20.5756 17.5487 20.5818C17.7025 20.5872 17.8484 20.5443 17.9775 20.4334L20.6711 18.0502C20.9787 17.7916 20.9951 17.3301 20.7067 17.0503L18.1788 14.5949C17.9274 14.355 17.5326 14.3601 17.293 14.6019C17.053 14.8532 17.0486 15.2477 17.2999 15.4877L18.7505 16.8249L15.2951 16.819Z"/></svg>

<svg xmlns="http://www.w3.org/2000/svg" fill="none" viewBox="0 0 24 24" focusable="false"><path fill="#74767B" fill-rule="evenodd" d="M13.49 4.3H7c-.94 0-1.7.76-1.7 1.7v5.35h13.4V9.29q0-.15-.03-.3h-2.72c-1.08 0-1.95-.87-1.95-1.95V4.37c-.17-.05-.34-.07-.51-.07M4 6v5.35H2.99c-.35 0-.65.29-.65.65 0 .35.3.65.65.65h18c.36 0 .65-.3.65-.65 0-.36-.29-.65-.65-.65H20V9.29c0-.83-.35-1.62-.95-2.18l-3.5-3.3c-.56-.52-1.3-.81-2.06-.81H7C5.34 3 4 4.34 4 6m11.3-.64 2.48 2.33h-1.83c-.36 0-.65-.29-.65-.65zM4 14.59c0-.36.29-.65.64-.65.36 0 .66.29.66.65V18c0 .93.76 1.7 1.7 1.7h5.12c.35 0 .65.29.65.65 0 .35-.3.65-.65.65H7c-1.66 0-3-1.35-3-3zm11.29 2.22a.63.63 0 0 0-.01 1.26c1.64.01 3.43 0 3.43 0l-1.55 1.41c-.26.22-.29.61-.07.88.12.14.28.21.45.22.16 0 .3-.04.43-.15l2.7-2.38c.3-.26.32-.72.03-1l-2.53-2.46a.63.63 0 0 0-.88.01c-.24.25-.25.64 0 .88l1.46 1.34z"/></svg>
